X:117 
T:Lord Gordon (reel)
S:Padraig O'Keeffe MS
F:file ID: cre.5/117lord_g
B:CRE5.191 (Tiarna Gordon)
Q:180
M:C
R:reel
K:D
dB|AD (3FED ADBD|AD (3FED A2dc|BEE2 BEdE|BE~E2 B2ag|
fgef dcBA|BcdB AFDF|G2eG F2dF|EFGA B2:|
|:de|fdAf fdad|fd~d2 a2gf|ge~e2 gebe|ge~e2 b2ag|
fgef dcBA|BcdB AFDF|G2eG F2dF|EFGA B2:|
"last time"EFGA BGFE|D8||

%%%

